X:1
T: The Cosmopolitan Hornpipe
C:
R:Reel
Q: 232
K:A
M:4/4
L:1/8
|:cB|Ac EG Ac ec|df Bd ga bg|ae ca fd BA|GA Bc dE GB|
Ac EG Ac ec|df Bd ga bg|((3agf) ((3edc) BE GB|A2 a2 A2:|
|:cd|ef ec Ac e=g|ff df Bd fa|((3gag) ((3efe) ((3BcB) ((3GAG)|((3EGB) ((3egb) e'2 cd|
ee cA Ac e=g|ff df Bf da|gf ed cB AG|A2 a2 A2:|
